public/images/stories-btn-play.svg

<svg width="90" height="90" viewBox="0 0 90 90" fill="none" xmlns="http://www.w3.org/2000/svg">
<g clip-path="url(#clip0_392_6755)">
<circle cx="44.9999" cy="45.0023" r="38.8846" stroke="white" stroke-width="3"/>
<path d="M51.8656 34.4988C59.5734 38.9032 63.4272 41.1054 63.4272 44.4216C63.4272 47.7377 59.5734 49.9399 51.8656 54.3444L49.983 55.4201C42.3787 59.7654 38.5766 61.9381 35.7304 60.2864C32.8843 58.6347 32.8843 54.2556 32.8843 45.4973L32.8843 43.3458C32.8843 34.5876 32.8843 30.2084 35.7304 28.5567C38.5766 26.9051 42.3787 29.0777 49.983 33.423L51.8656 34.4988Z" fill="white"/>
</g>
<defs>
<clipPath id="clip0_392_6755">
<rect width="90" height="90" fill="white"/>
</clipPath>
</defs>
</svg>

<svg width="90" height="90" fill="none" xmlns="http://www.w3.org/2000/svg"><g clip-path="url(#clip0_392_6755)"><circle cx="45" cy="45.002" r="38.885" stroke="#fff" stroke-width="3"/><path d="M51.866 34.499c7.707 4.404 11.561 6.606 11.561 9.923 0 3.316-3.854 5.518-11.561 9.922l-1.883 1.076c-7.604 4.345-11.406 6.518-14.253 4.866-2.846-1.651-2.846-6.03-2.846-14.789v-2.151c0-8.758 0-13.138 2.846-14.79 2.847-1.65 6.649.522 14.253 4.867l1.883 1.076z" fill="#fff"/></g><defs><clipPath id="clip0_392_6755"><path fill="#fff" d="M0 0h90v90H0z"/></clipPath></defs></svg>
